X:22
T:Nine Points of Roguery
R:Reel
S:Pub Scouts
M:4/4
K:D
FE|"D"D2FD GEFE|"D"DEFG "A"ABAF|"D"D2FD GEFA|"Em"BE~E2 "A7"BEGE|!
"D"D2FD GEFE|"D"DEFG "A"ABAF|"D"D2FA "G"GB"A"Ac|"D"d2dc d2:|!
AB|"C"=c2cA "G"B3G|"A7"A2 AB AGFE|"D"D2FD GEFA|"Em"BE~E2 BE~E2|!
"C"=c2cA "G"B2BG|"A7"Adcd "D"fdAF|"D"D2FA "G"GB"A"Ac|"D"d2dc d2:|!
fe|"D"d2fd gefe|"D"defg "A"abaf|"D"d2fd gefa|"Em"bege bege|!
"D"d2fd gefe|"D"d2ad "A"bdad|"D"dfaf "A7"gece|"D"d2 dc d2:|!
AB|"C"=c2cA "G"B2BG|"A"A2 AB AGFE|"D"D2FD GEFA|"Em"BE~E2 BE~E2|!
"C"=c2cA "G"B2BG|"A"Adcd "D"fdAF|"D"D2FA "G"GB"A"Ac|"D"d2dc d2:|

